X: 2280
M: 6/8
L: 1/8
K: Gm
uA |\
vB2vG AFD | vG2B AFD | vF2vF uF2uc | F2F F2A |\
vB2G  AFD | B2G  AFD | G2G G2d | G2G G2uA |\
vB2vG AFD | vB2G AFD | vF2vF uF2uc |
vB2G  AFD | B2G  AFD | G2G G2d | G2G G2 |]\
gag gdB | gag gdA |\


